X: 207
T: Igrale se Delije
O: Serbia
F: http://www.youtube.com/watch?v=lTbKaC-kEZw
F: http://www.youtube.com/watch?v=p4w1UrcJUlM
M: 2/4
L: 1/16
Q: 1/4=90
K: Ephr
|:"G"d3d  d2c2|B2A2 "Dm"A2z2 |\
  D2F2  A2A2|^G2F2 D2z2 :|
|:"Dm" D2F2  A4  |B2A2  A4   |\
  ^G2F2 "E7" E2D2|"A"E2E2  E4   :|



